X:1
T:Title
%%score { 1 | 2 }
L:1/8
Q:1/4=100
M:4/4
K:G
V:1 treble nm="Grand Piano"
V:2 bass 
V:1
 [DB]3 [DB] [Ec]2 [DB]2 | [DA]2 [G,DG]2 [G,CF]2 [G,CE]2 | [G,B,D]3 [G,B,D] [B,DG]2 [DB]2 | %3
w: J.~H.~Ruebush * * *|||
 [DGB]2 [^CEA]2 [FA]4 | [DB]3 [DB] [Ec]2 [DB]2 | [DA]2 [DG]2 F2 E2 | D3 D G2 B2 | [GB]3 [FA] G4 | %8
w: |||||
 d3 e d2 B2 | B3 c B2 G2 | d3 e d2 B2 | [GB]2 [FA]2 [FA]4 | B3 B c2 B2 | [EA]2 [EG]2 F2 E2 | %14
w: ||||||
 D3 D G2 B2 | [GB]3 [FA] G4 |] %16
w: ||
V:2
 [G,,G,]3 [G,,G,] [G,,G,]2 [G,,G,]2 | [A,,F,]2 B,,2 C,2 C,2 | G,,3 G,, G,,2 G,2 | G,2 A,2 [D,D]4 | %4
 [G,,G,]3 [G,,G,] [G,,G,]2 [G,,G,]2 | [B,,F,]2 [B,,G,]2 [C,G,C]2 [C,G,C]2 | %6
 [D,G,B,]3 [D,G,B,] [D,B,D]2 [D,G,D]2 | [D,D]3 [D,C] [G,B,]4 | [G,B,G]3 [G,CG] [G,B,G]2 [G,DG]2 | %9
 [G,DG]3 [G,EG] [G,DG]2 [G,B,D]2 | [G,B,G]3 [G,CG] [G,B,G]2 [G,DG]2 | [D,D]2 [D,D]2 [D,D]4 | %12
 [G,DG]3 [G,DG] [G,EG]2 [G,DG]2 | [C,C]2 [C,C]2 [C,A,C]2 [C,G,C]2 | %14
 [D,G,B,]3 [D,G,B,] [D,B,D]2 [D,F,D]2 | [D,D]3 [D,C] [G,B,]4 |] %16

